src/ios-printer-outline.svg

<?xml version="1.0" encoding="utf-8"?>
<!-- Generated by IcoMoon.io -->
<!DOCTYPE svg PUBLIC "-//W3C//DTD SVG 1.1//EN" "http://www.w3.org/Graphics/SVG/1.1/DTD/svg11.dtd">
<svg version="1.1" xmlns="http://www.w3.org/2000/svg" xmlns:xlink="http://www.w3.org/1999/xlink" width="512" height="512" viewBox="0 0 512 512">
<path fill="#000000" d="M432.5 112h-32.5v-48h-288v48h-31.5c-17.6 0-32.5 13.8-32.5 31.3v158.4c0 17.5 14.9 32.3 32.5 32.3h47.5v114h256v-114h48.5c17.6 0 31.5-14.8 31.5-32.3v-158.4c0-17.5-13.9-31.3-31.5-31.3zM128 80h256v32h-256v-32zM368 432h-224v-192h224v192zM448 301.7c0 8.7-6.7 16.3-15.5 16.3h-48.5v-94h-256v94h-47.5c-8.8 0-16.5-7.6-16.5-16.3v-158.4c0-8.7 7.7-15.3 16.5-15.3h352c8.8 0 15.5 6.6 15.5 15.3v158.4z"></path>
</svg>

<?xml version="1.0" encoding="utf-8"?>
<!-- Generator: Adobe Illustrator 16.2.1, SVG Export Plug-In . SVG Version: 6.00 Build 0)  -->
<!DOCTYPE svg PUBLIC "-//W3C//DTD SVG 1.1//EN" "http://www.w3.org/Graphics/SVG/1.1/DTD/svg11.dtd">
<svg version="1.1" id="Layer_1" xmlns="http://www.w3.org/2000/svg" xmlns:xlink="http://www.w3.org/1999/xlink" x="0px" y="0px"
	 width="512px" height="512px" viewBox="0 0 512 512" style="enable-background:new 0 0 512 512;" xml:space="preserve">
<g>
	<path d="M432.5,112H400V64H112v48H80.5C62.9,112,48,125.8,48,143.3v158.4c0,17.5,14.9,32.3,32.5,32.3H128v114h256V334h48.5
		c17.6,0,31.5-14.8,31.5-32.3V143.3C464,125.8,450.1,112,432.5,112z M128,80h256v32H128V80z M368,432H144V240h224V432z M448,301.7
		c0,8.7-6.7,16.3-15.5,16.3H384v-94H128v94H80.5c-8.8,0-16.5-7.6-16.5-16.3V143.3c0-8.7,7.7-15.3,16.5-15.3H432h0.5
		c8.8,0,15.5,6.6,15.5,15.3V301.7z"/>
</g>
</svg>
